X:1
T:Title
%%score ( 1 2 ) ( 3 4 )
L:1/8
Q:1/4=96
M:4/4
K:G
V:1 treble nm="Midi_20"
V:2 treble 
V:3 bass nm="Midi_20"
V:4 bass 
V:1
"^St Magnus (C.M.)""^Jeremiah Clarke\n(1673-1707)" D2 | G2 A2 F2 D2 | G2 A2 B2 A2 | B2 G2 B2 ^c2 | %4
 d6 ||[Q:1/4=48][Q:1/4=96][Q:1/4=48] A2 x6 | B2 A2 G2 F2 | E2 A2 F2 D2 | d2 dc B2 A2 | G6 |] %10
V:2
 B,2 | B,2 E2 D2 D2 | D2 D2 D2 D2 | D2 D2 D2 G2 | F6 || F2 x6 | G2 F2 E2 D2 | C2 E2 D2 D2 | %8
 D2 E2 D3 C | B,6 |] %10
V:3
 G,2 | G,2 C2 A,2 F,2 | G,2 F,2 G,2 F,2 | G,2 B,2 B,A, G,2 | A,6 || %5
"^1. The head that once was crowned with thorns\nis crowned with glory now:\na royal diadem adorns\nthe mighty Victor's brow.\n\n2. The highest place that heaven affords\nis his, is his by right,\nthe King of kings, and Lord of lords,\nand heaven's eternal light;\n\n3. the joy of all who dwell above,\nthe joy of all below, \nto whom he manifests his love,\nand grants his name to know." D2 x6 | %6
 D2 D2 B,2 B,2 | %7
"^4. To them, the Cross, with all its shame,\nwith all its grace, is given:\ntheir name an everlasting name,\ntheir joy the joy of heaven.\n\n5. The suffer with their Lord below,\nthey reign with him above;\ntheir profit and their joy to know\nthe mystery of his love.\n\n6. The Cross he bore is life and health,\nthough shame and death to him;\nhis people's hope, his people's wealth,\ntheir everlasting theme." G,2 C2 A,2 F,2 | %8
 G,2 G,2 G,2 F,2 | G,6 |] %10
V:4
 G,2 | E,2 C,2 D,3 C, | B,,2 D,2 G,,2 D,2 | G,,2 G,2 G,F, E,2 | D,6 || D,2 G,2 D,2 E,2 | %6
 B,,2 C,2 A,,2 D,2 | D,C, B,,2 C,2 D,2 | D,2 G,,6 | x6 |] %10

